!!!COM:	Du Fay, Guillaume
!!!CDT:	~1397/08/05/-1474/11/27
!!!OPR:	Missa Se la face ay pale
!!!ONM:	4
!!!OTL:	Sanctus
!!!AGN:	Mass; Sanctus
!!!SCT:	Duf1005b
!!!SCA:	Duf1005b
!!!voices:	4
!!!voices-OPR:	4
!!midi-transpose: -2
**kern	**text	**kern	**text	**kern	**text	**kern	**text
*staff4	*staff4	*staff3	*staff3	*staff2	*staff2	*staff1	*staff1
*Ivox	*	*Ivox	*	*Ivox	*	*Ivox	*
*I"Bassus	*	*I"Tenor	*	*I"Contratenor	*	*I"Cantus	*
*I'B	*	*I'T	*	*I'Ct	*	*I'Cn	*
*>[A,B,C,D,E]	*>[A,B,C,D,E]	*>[A,B,C,D,E]	*>[A,B,C,D,E]	*>[A,B,C,D,E]	*>[A,B,C,D,E]	*>[A,B,C,D,E]	*>[A,B,C,D,E]
*>A	*>A	*>A	*>A	*>A	*>A	*>A	*>A
*clefF4	*	*clefGv2	*	*clefGv2	*	*clefG2	*
*k[]	*	*k[]	*	*k[]	*	*k[]	*
*M3/1	*	*M3/1	*	*M3/1	*	*M3/1	*
*met(O)	*	*met(O)	*	*met(O)	*	*met(O)	*
*MM384	*MM384	*MM384	*MM384	*MM384	*MM384	*MM384	*MM384
!!section: Sanctus
!!!OMD: Sanctus
=1-	=1-	=1-	=1-	=1-	=1-	=1-	=1-
0.r	.	0.r	.	0.c	San-	1.cc	San-
.	.	.	.	.	.	2b\	.
.	.	.	.	.	.	1a	.
=2	=2	=2	=2	=2	=2	=2	=2
0.r	.	0.r	.	1.c	.	1g	.
.	.	.	.	.	.	1.cc	.
.	.	.	.	2B\	.	.	.
.	.	.	.	1A	.	.	.
.	.	.	.	.	.	2b\	.
=3	=3	=3	=3	=3	=3	=3	=3
0.r	.	0.r	.	1G	.	1b	.
.	.	.	.	0c	.	2a/	.
.	.	.	.	.	.	2g/	.
.	.	.	.	.	.	1e	.
=4	=4	=4	=4	=4	=4	=4	=4
0.r	.	0.r	.	1B	.	0d	.
.	.	.	.	0G	.	.	.
.	.	.	.	.	.	2e/	.
.	.	.	.	.	.	2d/	.
=5	=5	=5	=5	=5	=5	=5	=5
0.r	.	0.r	.	1B	.	1g	.
.	.	.	.	0A	.	2a/	.
.	.	.	.	.	.	1f#i	.
.	.	.	.	.	.	2e/	.
=6	=6	=6	=6	=6	=6	=6	=6
0.r	.	0.r	.	0.G	-ctus,	1g	-ctus,
.	.	.	.	.	.	1r	.
.	.	.	.	.	.	2b\	san-
.	.	.	.	.	.	2cc\	.
=7	=7	=7	=7	=7	=7	=7	=7
0.r	.	0.r	.	1r	.	1dd	.
.	.	.	.	1.c	san-	1.ee	.
.	.	.	.	2B\	.	2dd\	.
=8	=8	=8	=8	=8	=8	=8	=8
0.r	.	0.r	.	2c\	.	1ee	.
.	.	.	.	2d\	.	.	.
.	.	.	.	1e	.	2cc\	.
.	.	.	.	.	.	2b\	.
.	.	.	.	2f\	.	2.dd\	.
.	.	.	.	[2g\	.	.	.
.	.	.	.	.	.	4cc\	.
=9	=9	=9	=9	=9	=9	=9	=9
0.r	.	0.r	.	2g\]	.	2b\	.
.	.	.	.	2a\	.	1a	.
.	.	.	.	2f\	.	.	.
.	.	.	.	2d\	.	1dd	.
.	.	.	.	1e	.	.	.
.	.	.	.	.	.	2cc#i\	.
=10	=10	=10	=10	=10	=10	=10	=10
0.r	.	0.r	.	1d	-ctus,	1dd	-ctus,
.	.	.	.	1g	san-	2r	.
.	.	.	.	.	.	2g/	san-
.	.	.	.	2f\	.	2a/	.
.	.	.	.	[2g\	.	2b\	.
=11	=11	=11	=11	=11	=11	=11	=11
0.r	.	0.r	.	2g\]	.	1g	.
.	.	.	.	2c\	.	.	.
.	.	.	.	2d\	.	2f/	.
.	.	.	.	2e\	.	2g/	.
.	.	.	.	1c	.	4a/	.
.	.	.	.	.	.	4g/	.
.	.	.	.	.	.	4f/	.
.	.	.	.	.	.	4e/	.
=12	=12	=12	=12	=12	=12	=12	=12
0.r	.	0.r	.	2B\	.	2d/	.
.	.	.	.	1c	.	2e/	.
.	.	.	.	.	.	2c/	.
.	.	.	.	2e\	.	1cc	.
.	.	.	.	1d	.	.	.
.	.	.	.	.	.	2b\	.
=13	=13	=13	=13	=13	=13	=13	=13
[0.C	Do-	[0.c	Do-	0.c	-ctus,	1cc	-ctus,
.	.	.	.	.	.	1r	.
.	.	.	.	.	.	1r	.
=14	=14	=14	=14	=14	=14	=14	=14
0.C]	.	1c]	.	1r	.	0g	Do-
.	.	0c	.	0e	do-	.	.
.	.	.	.	.	.	1a	.
=15	=15	=15	=15	=15	=15	=15	=15
0.G	.	[0.B	.	1d	.	2b\	.
.	.	.	.	.	.	2.g/	.
.	.	.	.	2e\	.	.	.
.	.	.	.	.	.	4f/	.
.	.	.	.	1g	.	2e/	.
.	.	.	.	.	.	1d	.
.	.	.	.	2f\	.	.	.
=16	=16	=16	=16	=16	=16	=16	=16
1G	.	1B]	.	2e\	.	1g	.
.	.	.	.	2d\	.	.	.
1F	.	0A	.	1.f	.	2a/	.
.	.	.	.	.	.	2b\	.
[1A	.	.	.	.	.	[1cc	.
.	.	.	.	2e\	.	.	.
=17	=17	=17	=17	=17	=17	=17	=17
1A]	.	1c	.	1f	.	2cc\]	.
.	.	.	.	.	.	2a/	.
1G	.	1d	.	0g	.	1b	.
1C	.	[1e	.	.	.	2cc\	.
.	.	.	.	.	.	2b\	.
=18	=18	=18	=18	=18	=18	=18	=18
1E	.	1e]	.	2c\	.	1g	.
.	.	.	.	2B\	.	.	.
0D	-mi-	0f	-mi-	2d\	.	1a	.
.	.	.	.	2A/	.	.	.
.	.	.	.	2.B\	-mi-	1f	-mi-
.	.	.	.	4A/	.	.	.
=19	=19	=19	=19	=19	=19	=19	=19
0C	-nus	0e	-nus	0c	-nus	0.g	-nus
1G	.	[1d	.	1d	.	.	.
=20	=20	=20	=20	=20	=20	=20	=20
0G	de-	0.d]	.	0B	de-	0g	de-
1D	.	.	.	1A	.	[1a	.
=21	=21	=21	=21	=21	=21	=21	=21
2F\	-us	0c	de-	1A	-us	2a/]	.
2E\	.	.	.	.	.	2g/	.
0C	.	.	.	1G	.	1.e	.
.	.	1G	.	1g	sa-	.	.
.	.	.	.	.	.	2c/	.
=22	=22	=22	=22	=22	=22	=22	=22
1r	.	0A	.	1e	.	1c	-us
0D	sa-	.	.	1.f	.	1r	.
.	.	1B	.	.	.	1r	.
.	.	.	.	2e\	.	.	.
=23	=23	=23	=23	=23	=23	=23	=23
0.C	.	[0.c	-us	1.e	-ba-	0g	sa-
.	.	.	.	2f\	.	.	.
.	.	.	.	1g	.	1cc	.
=24	=24	=24	=24	=24	=24	=24	=24
1F	-ba-	1c]	.	1a	.	1cc	-ba-
2G\	.	1r	.	2g\	.	2b\	.
1A	.	.	.	2e\	.	2a/	.
.	.	1r	.	1f	.	2cc\	.
2B\	.	.	.	.	.	2dd\	.
=25	=25	=25	=25	=25	=25	=25	=25
0.c	.	[0.g	sa-	0.e	.	1ee	.
.	.	.	.	.	.	1.cc	.
.	.	.	.	.	.	2b\	.
=26	=26	=26	=26	=26	=26	=26	=26
0G	-oth,	1g]	.	0d	-oth,	0b	-oth,
.	.	0g	-ba-	.	.	.	.
1G	sa-	.	.	[1e	.	1b	sa-
=27	=27	=27	=27	=27	=27	=27	=27
1A	-ba-	[0.c	-oth,	1e]	.	1.cc	-ba-
0F	.	.	.	0f	.	.	.
.	.	.	.	.	.	1a	.
.	.	.	.	.	.	[2f/	.
=28	=28	=28	=28	=28	=28	=28	=28
1A	.	1c]	.	0.r	.	4f/]	.
.	.	.	.	.	.	4e/	.
.	.	.	.	.	.	2f/	.
0G	.	0B	sa-	.	.	2g/	.
.	.	.	.	.	.	2d/	.
.	.	.	.	.	.	1e	.
=29	=29	=29	=29	=29	=29	=29	=29
1F	-oth,	1c	-ba-	0.r	.	0f	-oth,
2B-\	sa-	1d	.	.	.	.	.
2A\	.	.	.	.	.	.	.
1G	.	1e	.	.	.	1g	sa-
=30	=30	=30	=30	=30	=30	=30	=30
0F	-ba-	1f	.	1r	.	0a	.
.	.	0d	.	1r	.	.	.
1G	.	.	.	1g	sa-	1b	.
=31	=31	=31	=31	=31	=31	=31	=31
1C	.	[0.cl	-oth.	1g	-ba-	0cc	.
2F\	.	.	.	2a\	.	.	.
2G\	.	.	.	2g\	.	.	.
1A	.	.	.	2.e\	.	2cc\	-ba-
.	.	.	.	.	.	2a/	.
.	.	.	.	4d\	.	.	.
=32	=32	=32	=32	=32	=32	=32	=32
0.Fl	-oth.	0.c]	.	0.fl	-oth.	0.al	-oth.
!!LO:LB:i:g=z
=33||	=33||	=33||	=33||	=33||	=33||	=33||	=33||
*>B	*>B	*>B	*>B	*>B	*>B	*>B	*>B
*clefF4	*	*clefGv2	*	*clefGv2	*	*clefG2	*
*k[]	*	*k[]	*	*k[]	*	*k[]	*
*M3/1	*	*M3/1	*	*M3/1	*	*M3/1	*
*met(O)	*	*met(O)	*	*met(O)	*	*met(O)	*
*MM384	*MM384	*MM384	*MM384	*MM384	*MM384	*MM384	*MM384
!!section: Pleni sunt celi
!!!OMD: Pleni sunt celi
0.r	.	0.r	.	[0.f	Ple-	1.a	Ple-
.	.	.	.	.	.	2b\	.
.	.	.	.	.	.	1cc	.
=34	=34	=34	=34	=34	=34	=34	=34
0.r	.	0.r	.	0.f]	.	1dd	.
.	.	.	.	.	.	1cc	.
.	.	.	.	.	.	1a	.
=35	=35	=35	=35	=35	=35	=35	=35
0.r	.	0.r	.	0g	.	1b	.
.	.	.	.	.	.	0g	.
.	.	.	.	1e	.	.	.
=36	=36	=36	=36	=36	=36	=36	=36
0.r	.	0.r	.	1f	.	1.a	.
.	.	.	.	0d	.	.	.
.	.	.	.	.	.	2g/	.
.	.	.	.	.	.	1f	.
=37	=37	=37	=37	=37	=37	=37	=37
0.r	.	0.r	.	1c	.	2e/	.
.	.	.	.	.	.	2.g/	.
.	.	.	.	1B	.	.	.
.	.	.	.	.	.	4f/	.
.	.	.	.	.	.	2d/	.
.	.	.	.	1c	.	2e/	.
.	.	.	.	.	.	[2c/	.
=38	=38	=38	=38	=38	=38	=38	=38
0.r	.	0.r	.	1A	.	2c/]	.
.	.	.	.	.	.	2f/	.
.	.	.	.	0G	.	2g/	.
.	.	.	.	.	.	2d/	.
.	.	.	.	.	.	2.e/	.
.	.	.	.	.	.	4d/	.
=39	=39	=39	=39	=39	=39	=39	=39
0.r	.	0.r	.	0F	-ni	1f	-ni
.	.	.	.	.	.	1r	.
.	.	.	.	1r	.	1f	sunt
=40	=40	=40	=40	=40	=40	=40	=40
0.r	.	0.r	.	1c	sunt	2.e/	ce-
.	.	.	.	.	.	4c/	.
.	.	.	.	2B\	ce-	2d/	.
.	.	.	.	1c	.	2e/	.
.	.	.	.	.	.	1c	.
.	.	.	.	2A/	.	.	.
=41	=41	=41	=41	=41	=41	=41	=41
0.r	.	0.r	.	2B\	.	1g	.
.	.	.	.	1c	.	.	.
.	.	.	.	.	.	2cc\	.
.	.	.	.	2G/	.	2b\	.
.	.	.	.	2A/	.	2cc\	.
.	.	.	.	2B\	.	[2dd\	.
=42	=42	=42	=42	=42	=42	=42	=42
0.r	.	0.r	.	2G/	.	4dd\]	.
.	.	.	.	.	.	4cc\	.
.	.	.	.	1c	.	2a/	.
.	.	.	.	.	.	2g/	.
.	.	.	.	2e\	.	1cc	.
.	.	.	.	1d	.	.	.
.	.	.	.	.	.	2b\	.
=43	=43	=43	=43	=43	=43	=43	=43
0.r	.	0.r	.	2c\	.	1cc	-li
.	.	.	.	2e\	.	.	.
.	.	.	.	2f\	.	2dd\	et
.	.	.	.	2g\	.	[1.ee	ter-
.	.	.	.	1c	-li	.	.
=44	=44	=44	=44	=44	=44	=44	=44
0.r	.	0.r	.	1g	et	2ee\]	.
.	.	.	.	.	.	1dd	.
.	.	.	.	2f\	ter-	.	.
.	.	.	.	1g	.	2b\	.
.	.	.	.	.	.	2dd\	.
.	.	.	.	2a\	.	2cc\	.
=45	=45	=45	=45	=45	=45	=45	=45
0.r	.	0.r	.	2f\	.	2a/	.
.	.	.	.	1g	.	2b\	.
.	.	.	.	.	.	1g	.
.	.	.	.	2e\	.	.	.
.	.	.	.	1d	.	2f/	.
.	.	.	.	.	.	[2a/	.
=46	=46	=46	=46	=46	=46	=46	=46
0.r	.	0.r	.	1c	.	4a/]	.
.	.	.	.	.	.	4g/	.
.	.	.	.	.	.	2e/	.
.	.	.	.	1B	.	2d/	.
.	.	.	.	.	.	1g	.
.	.	.	.	2.c\	.	.	.
.	.	.	.	.	.	2e/	.
.	.	.	.	4G/	.	.	.
=47	=47	=47	=47	=47	=47	=47	=47
0.r	.	0.r	.	2A/	.	2f/	.
.	.	.	.	2G/	.	1g	.
.	.	.	.	1c	.	.	.
.	.	.	.	.	.	2cc\	.
.	.	.	.	1d	.	2a/	.
.	.	.	.	.	.	2b\	.
=48	=48	=48	=48	=48	=48	=48	=48
0.r	.	0.r	.	[0.c	-ra	0.cc	-ra
=49	=49	=49	=49	=49	=49	=49	=49
[0.C	Glo-	0.r	.	0.c_	.	0.r	.
=50	=50	=50	=50	=50	=50	=50	=50
0.C]	.	0.r	.	0.c]	.	2.cc\	glo-
.	.	.	.	.	.	4b\	.
.	.	.	.	.	.	2a/	.
.	.	.	.	.	.	2g/	.
.	.	.	.	.	.	2a/	.
.	.	.	.	.	.	[2e/	.
=51	=51	=51	=51	=51	=51	=51	=51
2.c\	.	0.r	.	0.r	.	1e]	.
4B\	.	.	.	.	.	.	.
2A\	.	.	.	.	.	2f/	.
2G\	.	.	.	.	.	2g/	.
2A\	.	.	.	.	.	1c	.
[2E\	.	.	.	.	.	.	.
=52	=52	=52	=52	=52	=52	=52	=52
1E]	.	0.r	.	0.r	.	2B/	.
.	.	.	.	.	.	2c/	.
2F\	.	.	.	.	.	2d/	.
2G\	.	.	.	.	.	1e	.
1C	.	.	.	.	.	.	.
.	.	.	.	.	.	2c/	.
=53	=53	=53	=53	=53	=53	=53	=53
2BB/	.	0.r	.	0.r	.	2d/	.
2C/	.	.	.	.	.	2e/	.
2D\	.	.	.	.	.	2f/	.
1E	.	.	.	.	.	2g/	.
.	.	.	.	.	.	1e	.
2C/	.	.	.	.	.	.	.
=54	=54	=54	=54	=54	=54	=54	=54
2D\	.	0.r	.	0.r	.	2f/	.
2E\	.	.	.	.	.	2e/	.
2F\	.	.	.	.	.	4d/	.
.	.	.	.	.	.	4c/	.
2G\	.	.	.	.	.	1B	.
1E	.	.	.	.	.	.	.
.	.	.	.	.	.	[2e/	.
=55	=55	=55	=55	=55	=55	=55	=55
2C/	.	0.r	.	0.r	.	2e/]	.
2BB/	.	.	.	.	.	2.d/	.
1E	.	.	.	.	.	.	.
.	.	.	.	.	.	4c/	.
.	.	.	.	.	.	1c	.
1D	-ri-	.	.	.	.	.	.
.	.	.	.	.	.	2B/	-ri-
=56	=56	=56	=56	=56	=56	=56	=56
0.C	-a,	0.r	.	0.r	.	0.c	-a,
=57	=57	=57	=57	=57	=57	=57	=57
1F	glo-	0.r	.	1.c	glo-	0.r	.
2E\	.	.	.	.	.	.	.
2F\	.	.	.	2d\	.	.	.
1G	.	.	.	1e	.	.	.
=58	=58	=58	=58	=58	=58	=58	=58
2F\	.	0.r	.	2.f\	.	0.r	.
1A	.	.	.	.	.	.	.
.	.	.	.	4e\	.	.	.
.	.	.	.	2f\	.	.	.
2B\	.	.	.	2g\	.	.	.
1c	.	.	.	2e\	.	.	.
.	.	.	.	[2c\	.	.	.
=59	=59	=59	=59	=59	=59	=59	=59
1F	.	0.r	.	2c\]	.	0.r	.
.	.	.	.	2d\	.	.	.
1A	.	.	.	2c\	.	.	.
.	.	.	.	1f	.	.	.
1G	-ri-	.	.	.	.	.	.
.	.	.	.	2e\	-ri-	.	.
=60	=60	=60	=60	=60	=60	=60	=60
[0.F	-a	0.r	.	1.f	-a	0.r	.
.	.	.	.	2g\	.	.	.
.	.	.	.	1a	.	.	.
=61	=61	=61	=61	=61	=61	=61	=61
1F]	.	0.r	.	1a	tu-	0.r	.
0c	tu-	.	.	2g\	.	.	.
.	.	.	.	2.g\	.	.	.
.	.	.	.	4f\	.	.	.
.	.	.	.	2e\	.	.	.
=62	=62	=62	=62	=62	=62	=62	=62
1B	.	0.r	.	1d	.	0.r	.
1c	.	.	.	[0c	-a,	.	.
1A	.	.	.	.	.	.	.
=63	=63	=63	=63	=63	=63	=63	=63
0F	-a,	0.r	.	0c]	.	1.cc	glo-
.	.	.	.	.	.	2b\	.
1F	glo-	.	.	1d	glo-	1a	.
=64	=64	=64	=64	=64	=64	=64	=64
1E	.	0.r	.	1e	.	1g	.
0F	.	.	.	0c	.	0a	.
=65	=65	=65	=65	=65	=65	=65	=65
1C	.	0.r	.	1c	.	2g/	.
.	.	.	.	.	.	2e/	.
0D	.	.	.	1A	.	1.f	.
.	.	.	.	1B	.	.	.
.	.	.	.	.	.	2e/	.
=66	=66	=66	=66	=66	=66	=66	=66
0C	.	0.r	.	1.c	.	0e	.
.	.	.	.	2B\	.	.	.
1F	.	.	.	1A	.	2d/	.
.	.	.	.	.	.	2c/	.
=67	=67	=67	=67	=67	=67	=67	=67
1E	.	0.r	.	1G	.	1.c	.
0D	-ri-	.	.	1.F	-ri-	.	.
.	.	.	.	.	.	1.B	-ri-
.	.	.	.	2E/	.	.	.
=68	=68	=68	=68	=68	=68	=68	=68
1C	-a	0.r	.	1G	-a	2c/	-a
.	.	.	.	.	.	2e/	.
1BB	.	.	.	1r	.	1d	.
1C	tu-	.	.	1e	tu-	1c	.
=69	=69	=69	=69	=69	=69	=69	=69
1E	.	0.r	.	1c	.	1g	tu-
0D	.	.	.	0f	.	2a/	.
.	.	.	.	.	.	1b	.
.	.	.	.	.	.	2a/	.
=70	=70	=70	=70	=70	=70	=70	=70
1C	.	0.r	.	1e	.	1.cc	.
1F	.	.	.	2c\	.	.	.
.	.	.	.	1d	.	2a/	.
2G\	.	.	.	.	.	2b\	.
[2A\	.	.	.	2c\	.	2cc\	.
=71	=71	=71	=71	=71	=71	=71	=71
2A\]	.	0.r	.	2f\	.	2a/	.
2B-i\	.	.	.	2d\	.	2.g/	.
2A\	.	.	.	2e\	.	.	.
.	.	.	.	.	.	4f/	.
2F\	.	.	.	4d\	.	1f	.
.	.	.	.	4c\	.	.	.
1G	.	.	.	2.B\	.	.	.
.	.	.	.	.	.	2e/	.
.	.	.	.	4A/	.	.	.
=72	=72	=72	=72	=72	=72	=72	=72
0.Fl	-a.	0.r	.	0.cl	-a.	0.fl	-a.
!!LO:LB:i:g=z
=73||	=73||	=73||	=73||	=73||	=73||	=73||	=73||
*>C	*>C	*>C	*>C	*>C	*>C	*>C	*>C
*clefF4	*	*clefGv2	*	*clefGv2	*	*clefG2	*
*k[]	*	*k[]	*	*k[]	*	*k[]	*
*M3/1	*	*M3/1	*	*M3/1	*	*M3/1	*
*met(O)	*	*met(O)	*	*met(O)	*	*met(O)	*
*MM384	*MM384	*MM384	*MM384	*MM384	*MM384	*MM384	*MM384
!!section: Osanna I
!!!OMD: Osanna I
[0.F	O-	0a	O-	0f	O-	[0.cc	O-
.	.	1a	.	2f\	.	.	.
.	.	.	.	2e\	.	.	.
=74	=74	=74	=74	=74	=74	=74	=74
0.F]	.	0a	-san-	1c	.	0cc]	.
.	.	.	.	0f	.	.	.
.	.	1a	.	.	.	1dd	.
=75	=75	=75	=75	=75	=75	=75	=75
0.C	-san-	[0.g	-na,	0e	-san-	1.ee	-san-
.	.	.	.	.	.	2dd\	.
.	.	.	.	1e	.	1cc	.
=76	=76	=76	=76	=76	=76	=76	=76
0G	.	1g]	.	1d	.	0b	.
.	.	1r	.	2g\	.	.	.
.	.	.	.	2f\	.	.	.
1A	.	1c	o-	1e	.	1cc	.
=77	=77	=77	=77	=77	=77	=77	=77
1B	.	1d	-san-	1d	.	1b	.
1c	.	1e	.	0c	-na,	1g	.
[1F	.	[1f	.	.	.	2a/	.
.	.	.	.	.	.	2b\	.
=78	=78	=78	=78	=78	=78	=78	=78
1F]	.	1f]	.	1r	.	1cc	.
0G	.	0d	.	0g	o-	2b\	.
.	.	.	.	.	.	1b	.
.	.	.	.	.	.	2a/	.
=79	=79	=79	=79	=79	=79	=79	=79
0.A	.	0c	-na,	1.e	-san-	1cc	.
.	.	.	.	.	.	1a	.
.	.	.	.	1f	.	.	.
.	.	1r	.	.	.	1cc	.
.	.	.	.	2e\	.	.	.
=80	=80	=80	=80	=80	=80	=80	=80
0.G	.	1r	.	0.g	.	1dd	.
.	.	0d	o-	.	.	1.b	.
.	.	.	.	.	.	2g/	.
=81	=81	=81	=81	=81	=81	=81	=81
0.C	-na	0c	-san-	0.e	.	[0.g	-na
.	.	[1G	-na	.	.	.	.
=82	=82	=82	=82	=82	=82	=82	=82
0.r	.	1G]	.	0.c	.	1g]	.
.	.	1g	in	.	.	0e	.
.	.	1g	ex-	.	.	.	.
=83	=83	=83	=83	=83	=83	=83	=83
0.C	in	1g	-cel-	1G	.	1c	.
.	.	1g	-sis	2c\	.	1r	.
.	.	.	.	2d\	.	.	.
.	.	[1c	.	1e	.	1g	in
=84	=84	=84	=84	=84	=84	=84	=84
0.F	ex-	1c]	.	0A	-na	1a	.
.	.	1r	.	.	.	1f	.
.	.	1d	in	1r	.	2a/	ex-
.	.	.	.	.	.	2b\	.
=85	=85	=85	=85	=85	=85	=85	=85
1F	-cel-	0c	ex-	1a	in	0cc	-cel-
1A	.	.	.	2f\	.	.	.
.	.	.	.	2e\	.	.	.
1G	-sis,	[1B-	-cel-	2.g\	ex-	1dd	.
.	.	.	.	4f\	.	.	.
=86	=86	=86	=86	=86	=86	=86	=86
1r	.	1B-]	.	1d	-cel-	1g	.
0c	in	0A	.	2e\	.	1a	.
.	.	.	.	1f	.	.	.
.	.	.	.	.	.	1cc	.
.	.	.	.	2e\	.	.	.
=87	=87	=87	=87	=87	=87	=87	=87
1d	ex-	0G	-sis,	1g	.	1b	.
1B	.	.	.	1d	.	1.g	.
1c	.	1r	.	1e	.	.	.
.	.	.	.	.	.	2f/	.
=88	=88	=88	=88	=88	=88	=88	=88
1A	-cel-	0.r	.	0c	.	1.f	.
0G	.	.	.	.	.	.	.
.	.	.	.	.	.	2e/	.
.	.	.	.	1B	.	2e/	.
.	.	.	.	.	.	2d/	.
=89	=89	=89	=89	=89	=89	=89	=89
0F	-sis,	0.r	.	1c	-sis,	2f/	-sis,
.	.	.	.	.	.	2r	.
.	.	.	.	1A	in	2d/	in
.	.	.	.	.	.	2c/	ex-
2D\	ex-	.	.	2B-i\	ex-	2f/	-cel-
2C/	.	.	.	[2c\	-cel-	2g/	.
=90	=90	=90	=90	=90	=90	=90	=90
2F\	-cel-	0.r	.	2c\]	.	2a/	.
2G\	.	.	.	2B-i\	.	2b-i\	.
2A\	.	.	.	2c\	.	2a/	.
2B-i\	.	.	.	2d\	.	1f	.
1G	.	.	.	1Bni	.	.	.
.	.	.	.	.	.	2e/	.
=91	=91	=91	=91	=91	=91	=91	=91
0.Fl	-sis.	1.A	...cel-	0.cl	-sis.	0.fl	-sis.
.	.	2B\	.	.	.	.	.
.	.	1cl	-sis.	.	.	.	.
!!LO:LB:i:g=z
=92||	=92||	=92||	=92||	=92||	=92||	=92||	=92||
*>D	*>D	*>D	*>D	*>D	*>D	*>D	*>D
*clefF4	*	*clefGv2	*	*clefGv2	*	*clefG2	*
*k[]	*	*k[]	*	*k[]	*	*k[]	*
*M2/1	*	*M2/1	*	*M2/1	*	*M2/1	*
*met(C)	*	*met(C)	*	*met(C)	*	*met(C)	*
*MM420	*MM420	*MM420	*MM420	*MM420	*MM420	*MM420	*MM420
!!section: Benedictus
!!!OMD: Benedictus
0r	.	0r	.	[0f	Be-	0f	Be-
=93.	=93.	=93.	=93.	=93.	=93.	=93.	=93.
0r	.	0r	.	0f]	.	2a/	-ne-
.	.	.	.	.	.	2b\	.
.	.	.	.	.	.	[1cc	-dic-
=94.	=94.	=94.	=94.	=94.	=94.	=94.	=94.
0r	.	0r	.	0e	.	2cc\]	.
.	.	.	.	.	.	2b\	.
.	.	.	.	.	.	1g	.
=95	=95	=95	=95	=95	=95	=95	=95
0r	.	0r	.	0f	-ne-	1a	.
.	.	.	.	.	.	[1dd	.
=96.	=96.	=96.	=96.	=96.	=96.	=96.	=96.
0r	.	0r	.	1g	-dic-	2dd\]	.
.	.	.	.	.	.	2cc\	.
.	.	.	.	1e	.	[1cc	.
=97.	=97.	=97.	=97.	=97.	=97.	=97.	=97.
0r	.	0r	.	0d	.	1cc]	.
.	.	.	.	.	.	2b\	.
.	.	.	.	.	.	2a/	.
=98	=98	=98	=98	=98	=98	=98	=98
0r	.	0r	.	0c	-tus	1cc	-tus
.	.	.	.	.	.	1r	.
=99.	=99.	=99.	=99.	=99.	=99.	=99.	=99.
0r	.	0r	.	0r	.	1a	qui
.	.	.	.	.	.	1g	.
=100.	=100.	=100.	=100.	=100.	=100.	=100.	=100.
0r	.	0r	.	0c	qui	2e/	ve-
.	.	.	.	.	.	2f/	.
.	.	.	.	.	.	[1g	.
=101	=101	=101	=101	=101	=101	=101	=101
0r	.	0r	.	0B	.	2g/]	.
.	.	.	.	.	.	2f/	.
.	.	.	.	.	.	1d	.
=102.	=102.	=102.	=102.	=102.	=102.	=102.	=102.
0r	.	0r	.	1c	ve-	2e/	.
.	.	.	.	.	.	[1.c	.
.	.	.	.	1F	.	.	.
=103.	=103.	=103.	=103.	=103.	=103.	=103.	=103.
0r	.	0r	.	2E/	.	2c/]	.
.	.	.	.	2F/	.	2f/	.
.	.	.	.	1G	.	2d/	.
.	.	.	.	.	.	[2e/	.
=104	=104	=104	=104	=104	=104	=104	=104
0r	.	0r	.	2A/	.	2e/]	.
.	.	.	.	1F	.	2f/	.
.	.	.	.	.	.	1d	.
.	.	.	.	2B-i\	.	.	.
=105.	=105.	=105.	=105.	=105.	=105.	=105.	=105.
0r	.	0r	.	2A/	.	1c	-nit,
.	.	.	.	1c	.	.	.
.	.	.	.	.	.	2e/	ve-
.	.	.	.	2d\	.	2f/	.
=106.	=106.	=106.	=106.	=106.	=106.	=106.	=106.
0r	.	0r	.	1c	.	2g/	.
.	.	.	.	.	.	1a	.
.	.	.	.	1f	-nit,	.	.
.	.	.	.	.	.	2b\	.
=107	=107	=107	=107	=107	=107	=107	=107
0r	.	0r	.	2r	.	1cc	.
.	.	.	.	1f	qui	.	.
.	.	.	.	.	.	1a	.
.	.	.	.	2d\	.	.	.
=108.	=108.	=108.	=108.	=108.	=108.	=108.	=108.
0r	.	0r	.	2e\	ve-	2g/	.
.	.	.	.	2f\	.	1a	.
.	.	.	.	1d	.	.	.
.	.	.	.	.	.	[2f/	.
=109.	=109.	=109.	=109.	=109.	=109.	=109.	=109.
0r	.	0r	.	2c\	.	4f/]	.
.	.	.	.	.	.	4e/	.
.	.	.	.	1c	.	2e/	.
.	.	.	.	.	.	2c/	.
.	.	.	.	2B\	.	2d/	.
=110	=110	=110	=110	=110	=110	=110	=110
0r	.	0r	.	[0c;l	-nit	1.e	.
.	.	.	.	.	.	2c/	.
=111	=111	=111	=111	=111	=111	=111	=111
0r	.	0r	.	0c]	.	0c;	-nit,
=112	=112	=112	=112	=112	=112	=112	=112
0r	.	0r	.	1e	in	0r	.
.	.	.	.	2f\	.	.	.
.	.	.	.	[2g\	no-	.	.
=113.	=113.	=113.	=113.	=113.	=113.	=113.	=113.
0r	.	0r	.	2g\]	.	0r	.
.	.	.	.	2e\	.	.	.
.	.	.	.	1d	-mi-	.	.
=114.	=114.	=114.	=114.	=114.	=114.	=114.	=114.
0r	.	0r	.	1c	-ne,	1e	in
.	.	.	.	2d\	.	2f/	.
.	.	.	.	2e\	.	[2g/	no-
=115	=115	=115	=115	=115	=115	=115	=115
0r	.	0r	.	1c	.	2g/]	.
.	.	.	.	.	.	2e/	.
.	.	.	.	2r	.	1d	-mi-
.	.	.	.	2f\	in	.	.
=116.	=116.	=116.	=116.	=116.	=116.	=116.	=116.
0r	.	0r	.	2e\	no-	1c	-ne,
.	.	.	.	1a	.	.	.
.	.	.	.	.	.	2d/	.
.	.	.	.	[2g\	.	2e/	.
=117.	=117.	=117.	=117.	=117.	=117.	=117.	=117.
0r	.	0r	.	4g\]	.	1c	.
.	.	.	.	4f\	.	.	.
.	.	.	.	2e\	.	.	.
.	.	.	.	1d	.	2r	.
.	.	.	.	.	.	2f/	in
=118	=118	=118	=118	=118	=118	=118	=118
0r	.	0r	.	1c	.	2e/	no-
.	.	.	.	.	.	1a	.
.	.	.	.	2A/	.	.	.
.	.	.	.	2B\	.	[2g/	.
=119.	=119.	=119.	=119.	=119.	=119.	=119.	=119.
0r	.	0r	.	2G/	.	4g/]	.
.	.	.	.	.	.	4f/	.
.	.	.	.	1c	.	2e/	.
.	.	.	.	.	.	1d	.
.	.	.	.	2B\	.	.	.
=120.	=120.	=120.	=120.	=120.	=120.	=120.	=120.
0r	.	0r	.	1c	.	1c	.
.	.	.	.	1r	.	2e/	.
.	.	.	.	.	.	2f/	.
=121	=121	=121	=121	=121	=121	=121	=121
0r	.	0r	.	2e\	.	1g	-mi-
.	.	.	.	2f\	.	.	.
.	.	.	.	1g	-mi-	1c	-ne,
=122.	=122.	=122.	=122.	=122.	=122.	=122.	=122.
0r	.	0r	.	1c	-ne,	2r	.
.	.	.	.	.	.	2g/	in
.	.	.	.	2r	.	2e/	.
.	.	.	.	2g\	in	2c/	.
=123.	=123.	=123.	=123.	=123.	=123.	=123.	=123.
0r	.	0r	.	2e\	.	2r	.
.	.	.	.	2c\	.	2e/	no-
.	.	.	.	2r	.	2f/	.
.	.	.	.	2e\	no-	2g/	.
=124	=124	=124	=124	=124	=124	=124	=124
0r	.	0r	.	2f\	.	2a/	.
.	.	.	.	2g\	.	2g/	.
.	.	.	.	2a\	.	2cc\	.
.	.	.	.	2f\	.	[2dd\	.
=125.	=125.	=125.	=125.	=125.	=125.	=125.	=125.
0r	.	0r	.	2g\	.	4dd\]	.
.	.	.	.	.	.	4cc\	.
.	.	.	.	2e\	.	1cc	.
.	.	.	.	1d	.	.	.
.	.	.	.	.	.	2b\	.
=126.	=126.	=126.	=126.	=126.	=126.	=126.	=126.
0r	.	0r	.	1c	.	1.cc	.
.	.	.	.	2A/	.	.	.
.	.	.	.	2B\	.	2dd\	.
=127	=127	=127	=127	=127	=127	=127	=127
0r	.	0r	.	1c	.	2.ee\	.
.	.	.	.	.	.	4cc\	.
.	.	.	.	2G/	.	2dd\	.
.	.	.	.	[2c\	.	2ee\	.
=128.	=128.	=128.	=128.	=128.	=128.	=128.	=128.
0r	.	0r	.	2c\]	.	2cc\	.
.	.	.	.	2.d\	.	2b\	.
.	.	.	.	.	.	2.a/	.
.	.	.	.	4e\	.	.	.
.	.	.	.	4f\	.	.	.
.	.	.	.	4g\	.	4g/	.
=129.	=129.	=129.	=129.	=129.	=129.	=129.	=129.
0r	.	0r	.	2e\	.	2g/	.
.	.	.	.	2c\	.	2cc\	.
.	.	.	.	1d	-mi-	2a/	-mi-
.	.	.	.	.	.	2b\	.
=130	=130	=130	=130	=130	=130	=130	=130
0r	.	0r	.	0c;l	-ne	0cc;l	-ne
=131	=131	=131	=131	=131	=131	=131	=131
[0c	Do-	0r	.	1.e	Do-	0r	.
.	.	.	.	2f\	.	.	.
=132.	=132.	=132.	=132.	=132.	=132.	=132.	=132.
0c]	.	0r	.	1g	.	0r	.
.	.	.	.	1g	.	.	.
=133.	=133.	=133.	=133.	=133.	=133.	=133.	=133.
0F	.	0r	.	1.a	.	0r	.
.	.	.	.	2g\	.	.	.
=134	=134	=134	=134	=134	=134	=134	=134
[0c	.	0r	.	2e\	.	0r	.
.	.	.	.	2f\	.	.	.
.	.	.	.	1g	.	.	.
=135.	=135.	=135.	=135.	=135.	=135.	=135.	=135.
1c]	.	0r	.	1c	.	0r	.
2A\	.	.	.	[1f	.	.	.
2F\	.	.	.	.	.	.	.
=136.	=136.	=136.	=136.	=136.	=136.	=136.	=136.
0G	.	0r	.	1f]	.	0r	.
.	.	.	.	2e\	.	.	.
.	.	.	.	2d\	.	.	.
=137	=137	=137	=137	=137	=137	=137	=137
[0F	.	0r	.	1.f	.	0r	.
.	.	.	.	2e\	.	.	.
=138.	=138.	=138.	=138.	=138.	=138.	=138.	=138.
1F]	.	0r	.	2d\	.	0r	.
.	.	.	.	2c\	.	.	.
1E	.	.	.	[1c	.	.	.
=139.	=139.	=139.	=139.	=139.	=139.	=139.	=139.
1.F	.	0r	.	2c\]	.	0r	.
.	.	.	.	2B\	.	.	.
.	.	.	.	1A	.	.	.
2D\	.	.	.	.	.	.	.
=140	=140	=140	=140	=140	=140	=140	=140
1E	.	0r	.	1G	.	0r	.
1F	.	.	.	1d	.	.	.
=141.	=141.	=141.	=141.	=141.	=141.	=141.	=141.
1C	.	0r	.	2e\	.	0r	.
.	.	.	.	2c\	.	.	.
1E	.	.	.	[1c	.	.	.
=142.	=142.	=142.	=142.	=142.	=142.	=142.	=142.
0D	-mi-	0r	.	2c\]	.	0r	.
.	.	.	.	2B\	.	.	.
.	.	.	.	2B\	-mi-	.	.
.	.	.	.	2A/	.	.	.
=143	=143	=143	=143	=143	=143	=143	=143
0C	-ni,	0r	.	1c	-ni,	1g	do-
.	.	.	.	1G	.	2e/	.
.	.	.	.	.	.	2c/	.
=144.	=144.	=144.	=144.	=144.	=144.	=144.	=144.
1BB	do-	0r	.	1r	.	1d	.
1C	.	.	.	1E	do-	[1c	.
=145.	=145.	=145.	=145.	=145.	=145.	=145.	=145.
0D	-mi-	0r	.	1.F	.	1c]	.
.	.	.	.	.	.	1B	-mi-
.	.	.	.	2E/	-mi-	.	.
=146	=146	=146	=146	=146	=146	=146	=146
0C	-ni,	0r	.	0G	-ni,	0c	-ni,
=147.	=147.	=147.	=147.	=147.	=147.	=147.	=147.
0r	.	0r	.	[0c	.	2e/	do-
.	.	.	.	.	.	2f/	.
.	.	.	.	.	.	1g	.
=148.	=148.	=148.	=148.	=148.	=148.	=148.	=148.
0F	do-	0r	.	0c]	.	0a	.
=149	=149	=149	=149	=149	=149	=149	=149
1G	.	0r	.	0r	.	1g	.
[1A	.	.	.	.	.	2f/	.
.	.	.	.	.	.	[2e/	.
=150.	=150.	=150.	=150.	=150.	=150.	=150.	=150.
1A]	.	0r	.	0r	.	2e/]	.
.	.	.	.	.	.	2c/	.
1B	-mi-	.	.	.	.	1d	-mi-
=151.	=151.	=151.	=151.	=151.	=151.	=151.	=151.
0c	-ni,	0r	.	0r	.	1e	-ni,
.	.	.	.	.	.	1c	.
=152	=152	=152	=152	=152	=152	=152	=152
1F	do-	0r	.	0r	.	2r	.
.	.	.	.	.	.	2f/	do-
2E\	.	.	.	.	.	2g/	.
[2D\	.	.	.	.	.	2a/	.
=153.	=153.	=153.	=153.	=153.	=153.	=153.	=153.
2D\]	.	0r	.	0r	.	2b\	.
2C/	.	.	.	.	.	1cc	.
1F	.	.	.	.	.	.	.
.	.	.	.	.	.	2a/	.
=154.	=154.	=154.	=154.	=154.	=154.	=154.	=154.
0C	.	0r	.	0c	do-	2cc\	.
.	.	.	.	.	.	2b\	.
.	.	.	.	.	.	1g	.
=155	=155	=155	=155	=155	=155	=155	=155
1F	.	0r	.	1A	.	1f	.
1G	.	.	.	1B-	.	2e/	.
.	.	.	.	.	.	[2d/	.
=156.	=156.	=156.	=156.	=156.	=156.	=156.	=156.
1F	.	0r	.	1A	.	2d/]	.
.	.	.	.	.	.	2c/	.
1A	.	.	.	1F	.	1f	.
=157.	=157.	=157.	=157.	=157.	=157.	=157.	=157.
0G	-mi-	0r	.	1.B-i	-mi-	1g	-mi-
.	.	.	.	.	.	2e/	.
.	.	.	.	2A/	.	2d/	.
=158	=158	=158	=158	=158	=158	=158	=158
0Fl	-ni.	0r	.	0cl	-ni.	0fl	-ni.
!!LO:LB:i:g=z
=159||	=159||	=159||	=159||	=159||	=159||	=159||	=159||
*>E	*>E	*>E	*>E	*>E	*>E	*>E	*>E
*clefF4	*	*clefGv2	*	*clefGv2	*	*clefG2	*
*k[]	*	*k[]	*	*k[]	*	*k[]	*
*M2/1	*	*M2/1	*	*M2/1	*	*M2/1	*
*met(C)	*	*met(C)	*	*met(C)	*	*met(C)	*
*MM420	*MM420	*MM420	*MM420	*MM420	*MM420	*MM420	*MM420
!!section: Osanna II
!!!OMD: Osanna II
0F	O-	[0c	O-	0A	O-	0f	O-
=160.	=160.	=160.	=160.	=160.	=160.	=160.	=160.
0C	.	0c]	.	0G	.	0e	.
=161.	=161.	=161.	=161.	=161.	=161.	=161.	=161.
0D	-san-	0B	-san-	0F	-san-	1f	-san-
.	.	.	.	.	.	1d	.
=162	=162	=162	=162	=162	=162	=162	=162
0C	.	[0c	.	0G	-na,	2e/	.
.	.	.	.	.	.	2f/	.
.	.	.	.	.	.	1g	.
=163.	=163.	=163.	=163.	=163.	=163.	=163.	=163.
2F\	.	0c]	.	0r	.	1a	.
2G\	.	.	.	.	.	.	.
1A	.	.	.	.	.	1f	.
=164.	=164.	=164.	=164.	=164.	=164.	=164.	=164.
0B-	.	0d	.	0G	O-	1.g	.
.	.	.	.	.	.	2f/	.
=165	=165	=165	=165	=165	=165	=165	=165
[0A	.	0e	-na	1.c	-san-	1a	-na,
.	.	.	.	.	.	1r	.
.	.	.	.	2d\	.	.	.
=166.	=166.	=166.	=166.	=166.	=166.	=166.	=166.
0A]	.	0c	.	1e	.	2a/	O-
.	.	.	.	.	.	2b\	.
.	.	.	.	1a	.	[1cc	.
=167.	=167.	=167.	=167.	=167.	=167.	=167.	=167.
0c	-na,	0r	.	1.g	.	2cc\]	.
.	.	.	.	.	.	2dd\	.
.	.	.	.	.	.	[1ee	.
.	.	.	.	2f\	.	.	.
=168	=168	=168	=168	=168	=168	=168	=168
1r	.	1g	in	1e	.	2ee\]	.
.	.	.	.	.	.	2dd\	.
1G	O-	1g	ex-	1d	.	1b	.
=169.	=169.	=169.	=169.	=169.	=169.	=169.	=169.
0A	-san-	1e	-cel-	0c	.	1.cc	-san-
.	.	1f	.	.	.	.	.
.	.	.	.	.	.	2b\	.
=170.	=170.	=170.	=170.	=170.	=170.	=170.	=170.
0G	.	0g	-sis,	1d	.	0b	.
.	.	.	.	1B	.	.	.
=171	=171	=171	=171	=171	=171	=171	=171
0C	-na,	0r	.	1.c	.	0g	.
.	.	.	.	2G/	.	.	.
=172.	=172.	=172.	=172.	=172.	=172.	=172.	=172.
1r	.	0c	O-	1A	-na,	2e/	.
.	.	.	.	.	.	2f/	.
1C	O-	.	.	1G	.	2g/	.
.	.	.	.	.	.	2a/	.
=173.	=173.	=173.	=173.	=173.	=173.	=173.	=173.
1BB	-san-	1d	-san-	2r	.	2.b\	.
.	.	.	.	1G	O-	.	.
.	.	.	.	.	.	4g/	.
1C	-na	1e	-na	.	.	1g	-na
.	.	.	.	2c\	.	.	.
=174	=174	=174	=174	=174	=174	=174	=174
1D	in	1f	in	2B\	-san-	0r	.
.	.	.	.	2A/	.	.	.
1C	ex-	1e	ex-	1c	-na	.	.
=175.	=175.	=175.	=175.	=175.	=175.	=175.	=175.
1F	-cel-	1c	-cel-	2A/	in	1a	in
.	.	.	.	2B\	.	.	.
1E	.	1G	.	1c	.	1g	ex-
=176.	=176.	=176.	=176.	=176.	=176.	=176.	=176.
0D	.	1A	.	0d	ex-	2f/	-cel-
.	.	.	.	.	.	1f	.
.	.	1B	.	.	.	.	.
.	.	.	.	.	.	2e/	.
=177	=177	=177	=177	=177	=177	=177	=177
[0C	-sis,	1c	-sis,	1e	-cel-	0g	-sis,
.	.	[1e	in	2.c\	.	.	.
.	.	.	.	4B\	.	.	.
=178.	=178.	=178.	=178.	=178.	=178.	=178.	=178.
0C_	.	1e]	.	4A/	.	1c	in
.	.	.	.	4G/	.	.	.
.	.	.	.	1.G	-sis,	.	.
.	.	1c	ex-	.	.	1g	ex-
=179.	=179.	=179.	=179.	=179.	=179.	=179.	=179.
0C]	.	1g	-cel-	1G	in	1e	-cel-
.	.	1e	.	1g	ex-	1c	-sis,
=180	=180	=180	=180	=180	=180	=180	=180
0r	.	1c	-sis,	1e	-cel-	1r	.
.	.	1r	.	1c	.	1cc	in
=181.	=181.	=181.	=181.	=181.	=181.	=181.	=181.
0r	.	1g	in	2e\	-sis,	1b	ex-
.	.	.	.	2f\	.	.	.
.	.	1e	ex-	1g	.	[1ee	-cel-
=182.	=182.	=182.	=182.	=182.	=182.	=182.	=182.
1c	in	1g	-cel-	0r	.	1ee]	.
1d	ex-	1f	.	.	.	[1dd	.
=183	=183	=183	=183	=183	=183	=183	=183
1B	-cel-	0d	.	1r	.	1dd]	.
1G	.	.	.	1g	in	1b	.
=184.	=184.	=184.	=184.	=184.	=184.	=184.	=184.
0A	-sis,	0c	-sis,	2e\	ex-	1cc	.
.	.	.	.	1f	-cel-	.	.
.	.	.	.	.	.	1a	.
.	.	.	.	2e\	.	.	.
=185.	=185.	=185.	=185.	=185.	=185.	=185.	=185.
0G	.	1r	.	0g	.	1.b	.
.	.	1d	in	.	.	.	.
.	.	.	.	.	.	2a/	.
=186	=186	=186	=186	=186	=186	=186	=186
1.A	in	1c	ex-	1e	-sis,	0cc	-sis,
.	.	[1A	-cel-	[1c	in	.	.
[2F\	.	.	.	.	.	.	.
=187.	=187.	=187.	=187.	=187.	=187.	=187.	=187.
2F\]	.	1A]	.	1c]	.	1cc	in
2A\	.	.	.	.	.	.	.
1G	ex-	1B	.	2d\	ex-	1b	ex-
.	.	.	.	2e\	.	.	.
=188.	=188.	=188.	=188.	=188.	=188.	=188.	=188.
0F	-cel-	1c	.	1f	-cel-	2a/	-cel-
.	.	.	.	.	.	1a	.
.	.	1A	.	2.d\	.	.	.
.	.	.	.	.	.	2f/	.
.	.	.	.	4c\	.	.	.
=189	=189	=189	=189	=189	=189	=189	=189
1E	.	1G	.	1e	.	1g	.
1F	.	[1c	.	1A	.	1f	.
=190.	=190.	=190.	=190.	=190.	=190.	=190.	=190.
0C	-sis,	1c]	.	2G/	.	1e	-sis,
.	.	.	.	1c	.	.	.
.	.	1e	.	.	.	1r	.
.	.	.	.	2B\	.	.	.
=191.	=191.	=191.	=191.	=191.	=191.	=191.	=191.
0D	in	0d	.	1A	-sis,	2f/	in
.	.	.	.	.	.	2g/	ex-
.	.	.	.	2F/	in	[1a	-cel-
.	.	.	.	2G/	ex-	.	.
=192	=192	=192	=192	=192	=192	=192	=192
1.F	ex-	[0cl	-sis.	1.A	-cel-	2a/]	.
.	.	.	.	.	.	2b\	.
.	.	.	.	.	.	[1cc	.
2G\	.	.	.	2B\	.	.	.
=193.	=193.	=193.	=193.	=193.	=193.	=193.	=193.
1A	-cel-	0c_	.	1c	.	2cc\]	.
.	.	.	.	.	.	2.a/	.
1F	.	.	.	1A	.	.	.
.	.	.	.	.	.	4g/	.
.	.	.	.	.	.	2f/	.
=194.	=194.	=194.	=194.	=194.	=194.	=194.	=194.
0C	.	0c_	.	0G	.	2e/	.
.	.	.	.	.	.	2f/	.
.	.	.	.	.	.	2g/	.
.	.	.	.	.	.	2e/	.
=195	=195	=195	=195	=195	=195	=195	=195
[0Fl	-sis.	0c_	.	1.A	.	[0fl	-sis.
.	.	.	.	2F/	.	.	.
=196.	=196.	=196.	=196.	=196.	=196.	=196.	=196.
0F]	.	0c]	.	0Fl	-sis.	0f]	.
==	==	==	==	==	==	==	==
*-	*-	*-	*-	*-	*-	*-	*-
!!!RDF**kern: l=long note in original notation
!!!RDF**kern: i=editorial accidental
!!!ENC:	Jesse Rodin 8/28/2013
!!!END:	2013/11/21/
!!!EED:	Jesse Rodin
!!!EEV:	2013/11/21/
!!!ONB:	Translated from SCORE and edited on 2013/11/21/ by Craig Sapp
!!muse2ps: T^@{OPR}^u^@{ONM}{. }@{OTL}^C^@{COM}^i2I150v90,95,90,130Q16c73
